X:1
T: Miss Charlotte Bruce
C:
R:Strathspey
Q: 128
K:A
M:4/4
L:1/16
|:e2|A3B c3A e3c A3E|F2Bc dcBA GB3 B3c|A3B cA3 e3c A3E|F2Bc BAGF EA3 A2E2|
A3B c3A e3c A3E|F2Bc dcBA GB3 B3c|A3B cA3 e3c A3E|F2Bc BAGF EA3 A2cB|
A3c e3c a3c e3c|f3d e3c GB3 B3c|A3c e3c a3c e3c|f3d e3E FA3 A3c|
A3c e3a agfg a3e|f3d cA3 BAGF EDCB,|CA3 DB3 Ec3 F3d|dcBA GFED CA,3 A,2:|
